svg/u2763.svg

<svg viewBox="0 0 128 128" xmlns="http://www.w3.org/2000/svg">
  <g>
    <g>
      <circle cx="64" cy="111.91" fill="#F44336" r="11.75"/>
      <path d="M52.84,108.27c0.99-0.99,2.2-1.79,3.6-2.31c5.17-1.9,10.9,0.75,12.79,5.92 c1.61,4.38-0.06,9.16-3.76,11.67c0.86-0.11,1.73-0.31,2.58-0.62c6.09-2.24,9.22-8.99,6.98-15.08c-2.24-6.09-8.99-9.22-15.08-6.98 C56.43,102.17,53.92,104.97,52.84,108.27z" fill="#CC3333"/>
    </g>
    <g>
      <path d="M88.21,4.04C70.5,4.04,64,22.14,64,22.14S57.58,4.04,39.75,4.04c-13.4,0-28.68,10.62-23.03,34.75 c5.64,24.14,47.32,54.21,47.32,54.21s41.53-30.07,47.18-54.21C116.86,14.67,102.68,4.04,88.21,4.04z" fill="#F44336"/>
      <g>
        <path d="M37.02,5.85c13.9,0,20.8,14.94,23.03,21c0.32,0.86,1.52,0.89,1.88,0.05l2.04-4.76 C61.1,12.97,53.22,4.04,39.75,4.04c-5.57,0-11.47,1.84-16.05,5.73C27.75,7.12,32.49,5.85,37.02,5.85z" fill="#CC3333"/>
        <path d="M88.21,4.04c-4.28,0-7.89,1.24-10.93,3.11c2.13-0.82,4.5-1.31,7.11-1.31 c13.1,0,24.82,9.93,19.53,32.89c-4.54,19.71-31.08,43.62-39.19,52.75c-0.52,0.58-0.69,1.52-0.69,1.52s41.53-30.07,47.18-54.21 C116.86,14.67,101.6,4.04,88.21,4.04z" fill="#CC3333"/>
      </g>
      <path d="M26.02,16.86c3.03-3.78,8.44-6.91,13.03-3.31c2.48,1.95,1.4,5.94-0.82,7.62 c-3.24,2.45-6.05,3.94-8.01,7.79c-1.18,2.31-1.89,4.84-2.25,7.42c-0.14,1.02-1.48,1.27-1.98,0.37 C22.57,30.7,21.6,22.38,26.02,16.86z" fill="#FF8A80"/>
      <path d="M74.61,24.81c-1.42,0-2.43-1.38-1.9-2.7c0.96-2.44,2.21-4.8,3.7-6.91c2.21-3.1,6.43-4.91,9.09-3.03 c2.73,1.93,2.38,5.77,0.46,7.63C81.84,23.79,76.65,24.81,74.61,24.81z" fill="#FF8A80"/>
    </g>
  </g>
</svg>

<svg viewBox="0 0 128 128" xmlns="http://www.w3.org/2000/svg">
  <defs/>
  <path d="M75.75,111.91 A11.75 11.75 0 1 1 52.25,111.91 A11.75 11.75 0 1 1 75.75,111.91 Z" fill="#F44336"/>
  <path d="M52.84,108.27 C53.83,107.28 55.04,106.48 56.44,105.96 C61.61,104.06 67.34,106.71 69.23,111.88 C70.84,116.26 69.17,121.04 65.47,123.55 C66.33,123.44 67.2,123.24 68.05,122.93 C74.14,120.69 77.27,113.94 75.03,107.85 C72.79,101.76 66.04,98.63 59.95,100.87 C56.43,102.17 53.92,104.97 52.84,108.27 Z" fill="#CC3333"/>
  <path d="M88.21,4.04 C70.5,4.04 64,22.14 64,22.14 C64,22.14 57.58,4.04 39.75,4.04 C26.35,4.04 11.07,14.66 16.72,38.79 C22.36,62.93 64.04,93 64.04,93 C64.04,93 105.57,62.93 111.22,38.79 C116.86,14.67 102.68,4.04 88.21,4.04 Z" fill="#F44336"/>
  <path d="M37.02,5.85 C50.92,5.85 57.82,20.79 60.05,26.85 C60.37,27.71 61.57,27.74 61.93,26.9 L63.97,22.14 C61.1,12.97 53.22,4.04 39.75,4.04 C34.18,4.04 28.28,5.88 23.7,9.77 C27.75,7.12 32.49,5.85 37.02,5.85 Z" fill="#CC3333"/>
  <path d="M88.21,4.04 C83.93,4.04 80.32,5.28 77.28,7.15 C79.41,6.33 81.78,5.84 84.39,5.84 C97.49,5.84 109.21,15.77 103.92,38.73 C99.38,58.44 72.84,82.35 64.73,91.48 C64.21,92.06 64.04,93 64.04,93 C64.04,93 105.57,62.93 111.22,38.79 C116.86,14.67 101.6,4.04 88.21,4.04 Z" fill="#CC3333"/>
  <path d="M26.02,16.86 C29.05,13.08 34.46,9.95 39.05,13.55 C41.53,15.5 40.45,19.49 38.23,21.17 C34.99,23.62 32.18,25.11 30.22,28.96 C29.04,31.27 28.33,33.8 27.97,36.38 C27.83,37.4 26.49,37.65 25.99,36.75 C22.57,30.7 21.6,22.38 26.02,16.86 Z" fill="#FF8A80"/>
  <path d="M74.61,24.81 C73.19,24.81 72.18,23.43 72.71,22.11 C73.67,19.67 74.92,17.31 76.41,15.2 C78.62,12.1 82.84,10.29 85.5,12.17 C88.23,14.1 87.88,17.94 85.96,19.8 C81.84,23.79 76.65,24.81 74.61,24.81 Z" fill="#FF8A80"/>
</svg>
